icons/op-two-factor-authentication-24.svg

<svg width="24" height="24" viewBox="0 0 24 24" fill="none" xmlns="http://www.w3.org/2000/svg">
<path d="M16.9206 10.3059V8.8C16.9206 6.13333 14.6984 4 12 4C9.30159 4 7.07937 6.13333 7.07937 8.8V10.3059H6V20H18V10.3059H16.9206ZM14.7302 10.3059H9.26984V8.8C9.26984 7.35686 10.5079 6.16471 12 6.16471C13.4921 6.16471 14.7302 7.35686 14.7302 8.8V10.3059ZM10.6794 17.8353H8.5619L9.08254 14.9333C8.78413 14.7482 8.5619 14.4565 8.5619 14.0518C8.5619 13.4651 9.04444 13.0227 9.60317 13.0227C10.1968 13.0227 10.6794 13.462 10.6794 14.0518C10.6794 14.4565 10.4571 14.7482 10.1206 14.9333L10.6794 17.8353ZM15.4381 17.7976H13.3206L13.8413 14.8957C13.5429 14.7106 13.3206 14.4188 13.3206 14.0141C13.3206 13.4275 13.8032 12.9851 14.3619 12.9851C14.9556 12.9851 15.4381 13.4243 15.4381 14.0141C15.4381 14.4188 15.2159 14.7106 14.8794 14.8957L15.4381 17.7976Z" fill="black"/>
</svg>

<svg xmlns="http://www.w3.org/2000/svg" width="24" height="24" viewBox="0 0 24 24"><path d="M16.921 10.306V8.8C16.921 6.133 14.698 4 12 4 9.302 4 7.079 6.133 7.079 8.8v1.506H6V20h12v-9.694h-1.079Zm-2.191 0H9.27V8.8c0-1.443 1.238-2.635 2.73-2.635s2.73 1.192 2.73 2.635v1.506Zm-4.051 7.529H8.562l.521-2.902c-.299-.185-.521-.476-.521-.881 0-.587.482-1.029 1.041-1.029.594 0 1.076.439 1.076 1.029 0 .405-.222.696-.558.881l.558 2.902Zm4.759-.037h-2.117l.52-2.902c-.298-.185-.52-.477-.52-.882 0-.586.482-1.029 1.041-1.029.594 0 1.076.439 1.076 1.029 0 .405-.222.697-.559.882l.559 2.902Z"/></svg>
